X:1
T:ONE NIGHT OF GLADNESS
M:3/4
Q:1/4=120
K:Eb
c4e2|g2f3e|g6|-g2c2e2|g2f2e2|d6|-d2d2e2|f2e3d|
f6|-f2g2a2|g2d2e2|c6|-c2c2e2|g2f3e|g6|-g2c2e2|
g2f2e2|d6|-d2d2e2|f2e3d|f6|-f2g2a2|g2d2e2|
c6|-c7/4||
